X:1
T:Blessed Lord, who hast caused
T:Joseph Key (of Nuneaton)
T:Text: BCP
T:Edition released into the public domain, March 2010. As such, it may be freely copied and performed.
T:Blessed Lord, who hast caused
T:The Collect for the Second Sunday in Advent
T:Copyright © 
T:Copyright © 
T:Copyright © 
T:Copyright © 
C:Joseph Key
C:(of Nuneaton)
Z:Text: BCP
Z:Copyright ©
%%score [ 1 2 3 ( 4 5 ) ]
L:1/8
Q:1/4=60
M:3/4
K:C
V:1 treble nm="Soprano" snm="S."
V:2 treble nm="Alto" snm="A."
V:3 treble-8 transpose=-12 nm="Tenor" snm="T."
V:4 bass nm="Bass" snm="B."
V:5 bass 
V:1
"^Slow" c4 (c>d) | (c2 B2) z2 | e4 (e>f) | (e2 d2) dd | (ed) (cB) (AG) | (c2 BA) (Bc) | %6
w: Bless- ed _|Lord, _|bless- ed _|Lord, _ who hast|caus- * ed _ all _|ho- * * ly _|
 (cB) B2 dA | Bc B2 TA2 | G2 G2 z2 | z6 | z6 | c4 (c>d) | (c2 B2) z2 | z6 | z6 | z6 | z6 | z6 |: %18
w: scrip- * tures to be|writ- ten for our|learn- ing:|||Bless- ed _|Lord, _||||||
[M:4/4]"^Chorus Slow" c3 c c2 cc | d2 d2 d2 d2 | e3 e e2 ee | d2 c2 (cB) B2 | c2 z2 A2 z2 | %23
w: Grant that we may in|such wise hear them,|grant that we may in|such wise hear _ them;|read, mark,|
 A2 z A AA (A/B/)c |[M:3/4]"^Slow"[Q:1/4=60] G2 G2 Gc | c2 c2 d2 | e2 e2 dd | c2 TB4 | A2 z2 z2 | %29
w: learn, and in- ward- ly _ di-|gest them, that by|pa- tience and|com- fort of thy|ho- ly|word,|
 z2 z c BA | (GF EF) G2 | c2 (c>d) e2 | (e2 d)e cd | e2 z c BA | B2 z2 c2 | c4 (dc) | B4 B2 | %37
w: we may em-|brace _ _ _ and|e- ver _ hold|fast _ the bless- ed|hope, the bless- ed|hope, the|bless- ed _|hope of|
 A4 d2 | c4 TB2 | A2 z c BA | GF E2 EF | G4 c2 | c4 TB2 | c6 :|[M:4/4] G8 | A8 | G8 | G8 |] %48
w: e- ver-|last- ing|life, which thou hast|gi- ven us in our|Sa- viour|Je- sus|Christ.|A-|men,|A-|men.|
V:2
 z6 | z6 | G4 G2 | G4 z2 | z6 | z6 | z6 | z6 | z6 | z6 | z6 | G4 G2 | G4 z2 | z6 | z6 | z6 | z6 | %17
w: ||Bless- ed|Lord,||||||||Bless- ed|Lord,|||||
 z6 |:[M:4/4] E3 E F2 FF | ^F2 F2 G2 G2 | G3 G A2 AA | A2 G2 G2 G2 | G2 z2 F2 z2 | ^F2 z F FFFE | %24
w: |Grant that we may in|such wise hear them,|grant that we may in|such wise hear them;|read, mark,|learn, and in- ward- ly di-|
[M:3/4] (ED) D2 EE | F2 F2 F2 | E2 E2 FF | E2 E4 | E2 z2 z2 | z6 | z4 (E>F) | G2 G2 G2 | G3 G FF | %33
w: gest _ them, that by|pa- tience and|com- fort of thy|ho- ly|word,||and _|e- ver hold|fast the bless- ed|
 E2 z A ^FF | G2 z2 G2 | A4 A2 | ^G4 (GF) | E4 F2 | E4 E2 | E2 z2 z2 | z4 GF | (E3 F) (GA) | %42
w: hope, the bless- ed|hope, the|bless- ed|hope of _|e- ver-|last- ing|life,|in our|Sa- * viour _|
 G4 F2 | E6 :|[M:4/4] E8 | F8 | D8 | E8 |] %48
w: Je- sus|Christ.|A-|men,|A-|men.|
V:3
 z6 | z6 | c4 (c>d) | (c2 B2) z2 | z6 | z6 | z6 | z6 | z6 | c4 (c>d) | (c2 B2) z2 | e4 (e>f) | %12
w: ||Bless- ed _|Lord, _||||||Bless- ed _|Lord, _|bless- ed _|
 (e2 d2) dd | (ed) (cB) (AG) | (c2 BA) (Bc) | (cB) B2 dA | Bc B2 TA2 | G2 G4 |:[M:4/4] G3 G A2 AA | %19
w: Lord, _ who hast|caus- * ed _ all _|ho- * * ly _|scrip- * tures to be|writ- ten for our|learn- ing:|Grant that we may in|
 A2 A2 B2 B2 | B3 B c2 cc | f2 e2 (ed) d2 | e2 z2 c2 z2 | d2 z d dddc |[M:3/4] (cB) B2 GG | %25
w: such wise hear them,|grant that we may in|such wise hear _ them;|read, mark,|learn, and in- ward- ly di-|gest _ them, that by|
 A2 A2 B2 | c2 c2 BA | A2 T^G4 | A2 z c BA | (GF E2) (EF) | G2 G2 (c>d) | e2 (e>d) c2 | %32
w: pa- tience and|com- fort of thy|ho- ly|word, we may em-|brace , _ and _|e- ver, and _|e- ver _ hold|
 (c2 B)G AB | c2 z e dd | d2 z2 e2 | (fe dc) (BA) | e4 (ed) | c4 (BA) | A4 T^G2 | A2 z2 z2 | %40
w: fast _ the bless- ed|hope, the bless- ed|hope, the|bless- * * * ed _|hope of _|e- ver- *|last- ing|life,|
 z4 ed | (c3 d) (ef) | e4 Td2 | c6 :|[M:4/4] c8 | c8 | B8 | c8 |] %48
w: in our|Sa- * viour _|Je- sus|Christ.|A-|men,|A-|men.|
V:4
"^Bassoon" C,4 C,2 | G,,4 z2 |"^Full" (C,2 E,2) C,2 | (G,2 G,,2)"^Bassoon" G,G, | C,2 C,2 C,2 | %5
w: ||Bless- * ed|Lord, _ _ _|_ _ _|
 A,,4 A,,2 | G,,2 G,,2 D,D, | G,C, D,2 D,,2 | G,,2"^soft" G,F, E,D, | C,4 C,2 | G,,4 z2 | %11
w: ||||||
"^Full" (C,2 E,2) C,2 | (G,2 G,,2)"^Bassoon" G,G, | C,2 C,2 C,2 | A,,4 A,,2 | G,,2 G,,2 D,D, | %16
w: Bless- * ed|Lord, _ _ _|_ _ _|||
 G,C, D,2 D,,2 | G,,2 G,,4 |: %18
w: ||
[M:4/4]"^The order of staves used here is the same as in the original.The alto part is notated in the treble clef at the upper octave in the source." C,3 C, F,2 F,F, | %19
w: Grant that we may in|
 D,2 D,2 G,2 [G,,G,]2 | E,3 E, A,2 A,A, | F,2 C,2 G,2 [G,,G,]2 | C,2 z2 [F,,F,]2 z2 | %23
w: such wise hear them,|grant that we may in|such wise hear them;|read, mark,|
 D,2 z D, D,D, D,(E,/F,/) |[M:3/4] G,2 [G,,G,]2 C,C, | F,2 F,2 D,2 | C,2 C,2 D,D, | E,2 [E,,E,]4 | %28
w: learn, and in- ward- ly di- *|gest them, that by|pa- tience and|com- fort of thy|ho- ly|
 A,,2 z A, G,F, | (E,D, C,2) (C,D,) | E,2 E,2 (E,>D,) | C,2 C,2 C,2 | [G,,G,]3 E, F,D, | %33
w: word, we may em-|brace, _ _ and _|e- ver, and _|e- ver hold|fast the bless- ed|
 C,2 z A,, D,D, | [G,,G,]2 z2 C,2 | F,4 D,2 | E,4 E,2 | A,4 D,2 | E,4 [E,,E,]2 | A,,2 z A, G,F, | %40
w: hope, the bless- ed|hope, the|bless- ed|hope of|e- ver-|last- ing|life, which thou hast|
 E,D, C,2 C,D, | (E,3 D,) C,2 | G,4 G,,2 | C,6 :|[M:4/4] C,8 | F,8 | [G,,G,]8 | C,8 |] %48
w: gi- ven us in our|Sa- * viour|Je- sus|Christ.|A-|men,|A-|men.|
V:5
 x6 | x6 | x6 | x6 | x6 | x6 | x6 | x6 | x2 G,,2 x2 | x6 | x6 | x6 | x6 | x6 | x6 | x6 | x6 | x6 |: %18
[M:4/4] x8 | x8 | x8 | x8 | x8 | x8 |[M:3/4] x6 | x6 | x6 | x6 | x6 | x6 | x6 | x6 | x6 | x6 | x6 | %35
 x6 | x6 | x6 | x6 | x6 | x6 | x6 | x6 | x6 :|[M:4/4] x8 | x8 | x8 | x8 |] %48

